!!!SOCIAL_FUNCTION:	cremation legend songs
!!!PDT:	1932
!!!OTL: No_3_The_Wonder-boy_Is_Born.krn
!!!REG: Southwest
!!!LANG: Non-Tone
!!!LING_GROUP: Yuman-Cochimi
**kern
*staff1
=1-
*clefF4
*k[b-e-]
*M2/4
4r
8.r
16G\
=2
8G\L
8F\J
8F\L
8G\J
=3
4G\
8.r
16G\
=4
*M5/8
8G\L
8F\
8F\
8B-\
8B-\J
=5
*M2/4
8.B-\L
16F\Jk
8.G\L
16F\Jk
=6
8G\
8r
4r
=7
*M5/8
8G\L
8F\
8F\
8B-\
8B-\J
=8
8.B-\L
16F\K
8G\
8F\
8G\J
=9
*M2/4
4F\
8G\L
8F\J
=10
4F\
4r
=11
8G\L
8F\J
8F\L
8F\J
=12
4G\
4r
=13
*M5/8
8G\L
8F\
8F\
8B-\
8B-\J
=14
*M2/4
8.B-\L
16F\Jk
8.G\L
16F\Jk
=15
4G\
4r
=16
*M5/8
8G\L
8F\
8F\
8B-\
8B-\J
=17
8.B-\L
16F\K
8G\
8F\
8G\J
=18
*M2/4
4F\
8G\L
8F\J
=19
4F\
4r
=20
*M5/8
8G\L
8F\
8F\
8F\
8G\J
=21
*M2/4
4F\
4F\
=22
4F\
4r
=23
4r
8r
8A\
=24
4A\
4c\
=25
*M3/8
8c\L
8G\
8A\J
=26
*M5/8
4c\
4c\
8A\
=27||
*M2/4
8A\L
8G\J
8c\L
8F\J
=28
4F\
8F\
8r
=29||
*M5/8
8G\L
8F\
8F\
8A\
8A\J
=30
4A\
8c\L
8G\
8A\J
=31
8c\L
8B-\
8B-\
8A\
8G\J
=32
8A\L
8F\
8F\
8F\
8G\J
=33||
*M3/4
4F\
4F\
4r
=34||
*M5/8
8G\L
8F\
8F\
8A\
8A\J
=35||
*M2/4
8A\L
8F\J
8G\L
8F\J
=36
4G\
4r
=37||
*M5/8
8G\L
8F\
8F\
8A\
8A\J
=38
8A\L
8F\
8G\
8F\
8G\J
=39||
*M2/4
4F\
8G\L
8F\J
=40
4F\
4r
=41
8G\L
8F\J
8F\L
8F\J
=42
4G\
4r
=43||
*M5/8
8G\L
8F\
8F\
8A\
8A\J
=44||
*M2/4
8A\L
8F\J
8G\L
8F\J
=45
4G\
4r
=46||
*M5/8
8G\L
8F\
8F\
8A\
8A\J
=47
8A\L
8F\
8G\
8F\
8G\J
=48||
*M2/4
4F\
8G\L
8F\J
=49
4F\
4r
=50
8G\L
8F\J
8F\L
8F\J
=51
!!pagebreak:default
=
4A\
4c\
=52
4.c\
8A\
=53||
4F\
4r
==
*-
